X:919
T:Gentle maiden
R:Waltz
O:Ireland
B:O'Neill's 282
S:Richard Darsie's web page
Z:Transcription, chords:Mike Long
M:3/4
L:1/8
K:G
D2|"G"G3 AG2|"D"F2E2D2|"Bm"d6|"C"e3 fg2|\
"G"d3 cB2|"Am"A4G2|"C"E2c2A2|"D"F3 ED2|\
"G"G3 AG2|"D"F2E2D2|"Bm"d6|
"C"e3 fg2|\
"G"d3 cB2|"D"A4G2|"G"G6- |G4:|\
|:Bc|"G"d3 ef2|"Em"g3 ag2|"C"g3 ag2|"D"g2f2e2|\
"G"d3 cB2|"Am"A4G2|
"C"E2c2A2|"D"F3 ED2|\
"G"G3 AG2|"D"F2E2D2|"Bm"d6|"C"e3 fg2|\
"G"d3 cB2|"D"A4G2|"G"G6- |G4:|
